X: 20
T: Qiyue li huilai kanyikan wo
%%abc-version 2.0
%%abcx-abcm2ps-target-version 5.9.1 (29 Sep 2008)
%%abc-creator hum2abc beta
%%abcx-conversion-date 2013/10/02 07:52:29
%%abc-edited-by Helmut Schaffrath
%%humdrum-veritas 1958794529
%%humdrum-veritas-data 3344916874
%%continueall 1
%%barnumbers 0
L: 1/16
M: 2/4
K: A
B2 B e E2 D E [I:setbarnb 1]| 
F2 e2 f2 e c | 
B2> F2 E2 E c | 
B8 | 
B2 B e E2 D E | 
F2 e2 f2 e c | 
B2> F2 E2 D F | 
E8 |]  



